images_sukapura_svg/cmd/32/aligntop.svg

<svg viewBox="0 0 32 32" xmlns="http://www.w3.org/2000/svg" xmlns:xlink="http://www.w3.org/1999/xlink"><linearGradient id="a" gradientUnits="userSpaceOnUse" x1="-14.830508" x2="-14.830508" y1="25.40678" y2="11.40678"><stop offset="0" stop-color="#0040dd"/><stop offset="1" stop-color="#0a84ff"/></linearGradient><g fill="#69696e" transform="scale(-1)"><rect height="1" ry=".5" width="26" x="-29" y="-3.971516"/><rect height="1" ry=".5" width="17.999998" x="-21" y="-8"/><rect height="1.028484" ry=".514242" width="26.000002" x="-29" y="-13"/></g><path d="m10.984375 15a1.0001 1.0001 0 0 0 -.691406.292969l-5.0000002 5a1.0001 1.0001 0 0 0 .7070312 1.707031h3v6.5c0 .277.223.5.5.5h3c.277 0 .5-.223.5-.5v-6.5h3.009766a1.0001 1.0001 0 0 0 .707031-1.707031l-5.009766-5a1.0001 1.0001 0 0 0 -.722656-.292969z" fill="url(#a)"/><g fill="#eaeaea" fill-opacity=".992157" transform="scale(-1)"><rect height="1" ry=".5" width="26" x="-29" y="-4.971516"/><rect height="1" ry=".5" width="17.999998" x="-21" y="-9"/><rect height="1.028484" ry=".514242" width="25.999998" x="-29" y="-14"/></g></svg>

<?xml version="1.0" encoding="UTF-8" standalone="no"?>
<svg
   xmlns:dc="http://purl.org/dc/elements/1.1/"
   xmlns:cc="http://creativecommons.org/ns#"
   xmlns:rdf="http://www.w3.org/1999/02/22-rdf-syntax-ns#"
   xmlns:svg="http://www.w3.org/2000/svg"
   xmlns="http://www.w3.org/2000/svg"
   xmlns:xlink="http://www.w3.org/1999/xlink"
   xmlns:sodipodi="http://sodipodi.sourceforge.net/DTD/sodipodi-0.dtd"
   xmlns:inkscape="http://www.inkscape.org/namespaces/inkscape"
   viewBox="0 0 32 32"
   version="1.1"
   id="svg20"
   sodipodi:docname="aligntop.svg"
   inkscape:export-filename="/home/rizmut/Dokumen/Rizmut/Github/libreoffice-style-sukapura/images_sukapura/cmd/32/aligntop.png"
   inkscape:export-xdpi="96"
   inkscape:export-ydpi="96"
   inkscape:version="0.92.3 (unknown)">
  <metadata
     id="metadata26">
    <rdf:RDF>
      <cc:Work
         rdf:about="">
        <dc:format>image/svg+xml</dc:format>
        <dc:type
           rdf:resource="http://purl.org/dc/dcmitype/StillImage" />
        <dc:title></dc:title>
      </cc:Work>
    </rdf:RDF>
  </metadata>
  <defs
     id="defs24">
    <linearGradient
       gradientTransform="translate(-25.830508,-3.5932203)"
       id="a"
       gradientUnits="userSpaceOnUse"
       x1="14"
       x2="13.79661"
       y1="22"
       y2="2.1355929">
      <stop
         offset="0"
         stop-color="#0040dd"
         id="stop2" />
      <stop
         offset="1"
         stop-color="#0a84ff"
         id="stop4" />
    </linearGradient>
    <linearGradient
       inkscape:collect="always"
       xlink:href="#a"
       id="linearGradient1615"
       x1="11"
       y1="29"
       x2="11"
       y2="15"
       gradientUnits="userSpaceOnUse" />
  </defs>
  <sodipodi:namedview
     pagecolor="#ffffff"
     bordercolor="#666666"
     borderopacity="1"
     objecttolerance="10"
     gridtolerance="10"
     guidetolerance="10"
     inkscape:pageopacity="0"
     inkscape:pageshadow="2"
     inkscape:window-width="1366"
     inkscape:window-height="699"
     id="namedview22"
     showgrid="true"
     inkscape:zoom="7.375"
     inkscape:cx="33.375991"
     inkscape:cy="0.6540801"
     inkscape:window-x="0"
     inkscape:window-y="0"
     inkscape:window-maximized="1"
     inkscape:current-layer="svg20">
    <inkscape:grid
       type="xygrid"
       id="grid833"
       spacingx="0.5"
       spacingy="0.5"
       empspacing="2" />
  </sodipodi:namedview>
  <g
     id="g1644">
    <g
       style="fill:#69696e;fill-opacity:1"
       id="g8"
       transform="scale(-1)">
      <rect
         style="fill:#69696e;fill-opacity:1"
         id="rect2"
         y="-3.971516"
         x="-29"
         width="26"
         ry=".5"
         height="1"
         fill="#808080" />
      <rect
         style="fill:#69696e;fill-opacity:1"
         id="rect4"
         y="-8"
         x="-21"
         width="17.999998"
         ry=".5"
         height="1"
         fill="#808080" />
      <rect
         style="fill:#69696e;fill-opacity:1"
         id="rect6"
         y="-13"
         x="-29"
         width="26.000002"
         ry=".514242"
         height="1.028484"
         fill="#808080" />
    </g>
    <path
       id="path12"
       d="M 10.984375 15 A 1.0001 1.0001 0 0 0 10.292969 15.292969 L 5.2929688 20.292969 A 1.0001 1.0001 0 0 0 6 22 L 9 22 L 9 28.5 C 9 28.777 9.223 29 9.5 29 L 12.5 29 C 12.777 29 13 28.777 13 28.5 L 13 22 L 16.009766 22 A 1.0001 1.0001 0 0 0 16.716797 20.292969 L 11.707031 15.292969 A 1.0001 1.0001 0 0 0 10.984375 15 z "
       style="fill:url(#linearGradient1615);fill-opacity:1;stroke:none;stroke-width:2;stroke-linecap:round;stroke-linejoin:round" />
    <rect
       id="rect14"
       y="-4.971516"
       x="-29"
       width="26"
       transform="scale(-1)"
       ry=".5"
       height="1"
       fill-opacity=".992157"
       fill="#eaeaea" />
    <rect
       id="rect16"
       y="-9"
       x="-21"
       width="17.999998"
       transform="scale(-1)"
       ry=".5"
       height="1"
       fill-opacity=".992157"
       fill="#eaeaea" />
    <rect
       id="rect18"
       y="-14"
       x="-29"
       width="25.999998"
       transform="scale(-1)"
       ry=".514242"
       height="1.028484"
       fill-opacity=".992157"
       fill="#eaeaea" />
  </g>
</svg>
